X:207
T: MUSS ICH DENN MUSS ICH DENN
N: E0785A
O: Europa, Mitteleuropa, Deutschland, Hessen, Odenwald
R: Abschieds - Lied, Liebe
M: 2/4
L: 1/16
K: F
FA | c2ccc2fd | c2ccA2
dd | c3BG2c2 | A4z2
FA | c2ccc2fd | c2ccA2
dd | c3BG2c2 | A4z2
cc | G2G2G2c2 | A2A2A2
FF | B3dfefd | c4z2
FA | c2ccc2fd | c2ccA2
dd | c3BG2c2 | A4z2

@@@ Tune index: 4520
